icons/medicine-bottle-fill.svg

<svg viewBox="0 0 24 24" fill="currentColor" xmlns="http://www.w3.org/2000/svg">
    <path d="M17 5V7C18.6569 7 20 8.34315 20 10V21C20 21.5523 19.5523 22 19 22H5C4.44772 22 4 21.5523 4 21V10C4 8.34315 5.34315 7 7 7V5H17ZM13 11H11V13H9V15H10.999L11 17H13L12.999 15H15V13H13V11ZM19 2V4H5V2H19Z"/>
</svg>

<svg xmlns="http://www.w3.org/2000/svg" viewBox="0 0 24 24">
    <g>
        <path fill="none" d="M0 0H24V24H0z"/>
        <path d="M17 5v2c1.657 0 3 1.343 3 3v11c0 .552-.448 1-1 1H5c-.552 0-1-.448-1-1V10c0-1.657 1.343-3 3-3V5h10zm-4 6h-2v2H9v2h1.999L11 17h2l-.001-2H15v-2h-2v-2zm6-9v2H5V2h14z"/>
    </g>
</svg>
